; generated by PrusaSlicer 2.5.0+win64 on 2023-02-04 at 22:57:30 UTC

; 

; external perimeters extrusion width = 0.50mm
; perimeters extrusion width = 0.50mm
; infill extrusion width = 0.50mm
; solid infill extrusion width = 0.50mm
; top infill extrusion width = 0.50mm
; first layer extrusion width = 0.42mm

M73 P0 R48
M73 Q0 S49
M201 X1000 Y1000 Z200 E5000 ; sets maximum accelerations, mm/sec^2
M203 X200 Y200 Z12 E120 ; sets maximum feedrates, mm / sec
M204 P1250 R1250 T1250 ; sets acceleration (P, T) and retract acceleration (R), mm/sec^2
M205 X8.00 Y8.00 Z0.40 E4.50 ; sets the jerk limits, mm/sec
M205 S0 T0 ; sets the minimum extruding and travel feed rate, mm/sec
M107
;TYPE:Custom
M862.3 P "MK3S" ; printer model check
M862.1 P0.4 ; nozzle diameter check
M115 U3.11.0 ; tell printer latest fw version
G90 ; use absolute coordinates
M83 ; extruder relative mode
M104 S215 ; set extruder temp
M140 S60 ; set bed temp
M190 S60 ; wait for bed temp
M109 S215 ; wait for extruder temp
G28 W ; home all without mesh bed level
G80 ; mesh bed leveling

G1 Z0.2 F720
G1 Y-3 F1000 ; go outside print area
G92 E0
G1 X60 E9 F1000 ; intro line
G1 X100 E12.5 F1000 ; intro line

G92 E0
M221 S95

; Don't change E values below. Excessive value can damage the printer.

G21 ; set units to millimeters
G90 ; use absolute coordinates
M83 ; use relative distances for extrusion
M900 K0.05 ; Filament gcode LA 1.5
M900 K30 ; Filament gcode LA 1.0
M107
;LAYER_CHANGE
;Z:0.2
;HEIGHT:0.2
;BEFORE_LAYER_CHANGE
G92 E0.0
;0.2


G1 E-.8 F2100
G1 Z.4 F720
;AFTER_LAYER_CHANGE
;0.2
; printing object 1x1 bin id:0 copy 0
G1 X147.505 Y89.32 F10800
G1 Z.2 F720
G1 E.8 F2100
M204 S800
;TYPE:Perimeter
;WIDTH:0.419999
G1 F1200
G1 X147.771 Y89.484 E.00981
G1 X148.08 Y89.809 E.01405
G1 X148.229 Y90.156 E.01184
G1 X148.293 Y90.611 E.01442
G1 X148.293 Y119.452 E.90428
G1 X148.183 Y120 E.01751
G1 X148.01 Y120.278 E.01026
G1 X147.691 Y120.58 E.0138
G1 X147.404 Y120.715 E.00995
G1 X146.948 Y120.793 E.01448
G1 X103.048 Y120.793 E1.37647
G1 X102.5 Y120.683 E.01751
G1 X102.222 Y120.51 E.01026
G1 X101.92 Y120.191 E.0138
G1 X101.785 Y119.904 E.00995
G1 X101.707 Y119.448 E.01448
G1 X101.707 Y90.548 E.90615
G1 X101.817 Y90 E.01751
G1 X101.99 Y89.722 E.01026
G1 X102.309 Y89.42 E.0138
G1 X102.596 Y89.285 E.00995
G1 X103.052 Y89.207 E.01448
G1 X146.889 Y89.207 E1.37448
G1 X147.028 Y89.213 E.00439
G1 X147.447 Y89.307 E.01344
M204 S1000
G1 X147.778 Y89.038 F10800
M204 S800
;TYPE:External perimeter
G1 F1200
G1 X148.174 Y89.326 E.01534
G1 X148.462 Y89.722 E.01534
G1 X148.639 Y90.209 E.01625
G1 X148.67 Y90.611 E.01266
G1 X148.67 Y119.358 E.90133
G1 X148.641 Y119.703 E.01087
G1 X148.531 Y120.149 E.01438
G1 X148.285 Y120.538 E.01445
G1 X147.901 Y120.896 E.01646
G1 X147.521 Y121.073 E.01313
G1 X146.972 Y121.17 E.01748
G1 X103.142 Y121.17 E1.37427
G1 X102.797 Y121.141 E.01087
G1 X102.351 Y121.031 E.01438
G1 X101.962 Y120.785 E.01445
G1 X101.604 Y120.401 E.01646
G1 X101.427 Y120.021 E.01313
G1 X101.33 Y119.472 E.01748
G1 X101.33 Y90.642 E.90395
G1 X101.359 Y90.297 E.01087
G1 X101.469 Y89.852 E.01438
G1 X101.715 Y89.462 E.01445
G1 X102.099 Y89.104 E.01646
G1 X102.479 Y88.927 E.01313
G1 X103.028 Y88.83 E.01748
G1 X146.889 Y88.83 E1.37522
G1 X147.289 Y88.86 E.01261
G1 X147.722 Y89.018 E.01443
M204 S1000
G1 X147.79 Y89.438 F10800
;WIPE_START
G1 F8640
G1 X148.174 Y89.326 E-.12635
G1 X148.462 Y89.722 E-.11299
G1 X148.639 Y90.209 E-.1197
G1 X148.67 Y90.611 E-.09325
G1 X148.67 Y91.944 E-.3077
;WIPE_END
G1 E-.04 F2100
G1 Z.6 F720
G1 X146.703 Y89.326 F10800
G1 Z.2 F720
G1 E.8 F2100
M204 S800
;TYPE:Solid infill
;WIDTH:0.420491
G1 F1200
G1 X148.01 Y90.633 E.05803
G1 X148.01 Y91.167 E.01676
G1 X146.339 Y89.495 E.07421
G1 X145.805 Y89.495 E.01677
G1 X148.01 Y91.701 E.09792
G1 X148.01 Y92.235 E.01676
G1 X145.271 Y89.495 E.12163
G1 X144.737 Y89.495 E.01677
G1 X148.01 Y92.769 E.14534
G1 X148.01 Y93.303 E.01676
G1 X144.203 Y89.495 E.16905
G1 X143.669 Y89.495 E.01677
G1 X148.01 Y93.837 E.19276
G1 X148.01 Y94.37 E.01676
G1 X143.135 Y89.495 E.21648
G1 X142.601 Y89.495 E.01677
G1 X148.01 Y94.904 E.24019
G1 X148.01 Y95.438 E.01676
G1 X142.067 Y89.495 E.2639
G1 X141.533 Y89.495 E.01677
M73 Q0 S48
G1 X148.01 Y95.972 E.28761
G1 X148.01 Y96.506 E.01676
G1 X140.999 Y89.495 E.31132
G1 X140.465 Y89.495 E.01677
G1 X148.01 Y97.04 E.33503
G1 X148.01 Y97.574 E.01676
G1 X139.931 Y89.494 E.35874
G1 X139.396 Y89.494 E.01677
G1 X148.01 Y98.108 E.38245
G1 X148.01 Y98.642 E.01676
G1 X138.862 Y89.494 E.40616
G1 X138.328 Y89.494 E.01677
M73 P1 R48
M73 Q1 S48
G1 X148.01 Y99.176 E.42987
G1 X148.01 Y99.71 E.01676
G1 X137.794 Y89.494 E.45358
G1 X137.26 Y89.494 E.01677
G1 X148.01 Y100.244 E.4773
G1 X148.01 Y100.778 E.01676
G1 X136.726 Y89.494 E.50101
G1 X136.192 Y89.494 E.01677
G1 X148.01 Y101.312 E.52472
G1 X148.01 Y101.846 E.01676
G1 X135.658 Y89.494 E.54843
G1 X135.124 Y89.494 E.01677
G1 X148.01 Y102.38 E.57214
G1 X148.01 Y102.914 E.01676
G1 X134.59 Y89.494 E.59585
G1 X134.056 Y89.494 E.01677
G1 X148.01 Y103.448 E.61956
G1 X148.01 Y103.982 E.01676
G1 X133.522 Y89.494 E.64327
G1 X132.988 Y89.494 E.01677
G1 X148.01 Y104.516 E.66698
G1 X148.01 Y105.05 E.01676
G1 X132.454 Y89.493 E.69069
G1 X131.92 Y89.493 E.01677
G1 X148.01 Y105.584 E.7144
G1 X148.01 Y106.118 E.01676
G1 X131.386 Y89.493 E.73812
G1 X130.852 Y89.493 E.01677
G1 X148.01 Y106.652 E.76183
G1 X148.01 Y107.186 E.01676
G1 X130.318 Y89.493 E.78554
G1 X129.784 Y89.493 E.01677
G1 X148.01 Y107.72 E.80925
G1 X148.01 Y108.254 E.01676
G1 X129.25 Y89.493 E.83296
G1 X128.716 Y89.493 E.01677
M73 P1 R47
G1 X148.01 Y108.788 E.85667
G1 X148.01 Y109.322 E.01676
G1 X128.182 Y89.493 E.88038
G1 X127.648 Y89.493 E.01677
G1 X148.01 Y109.856 E.90409
G1 X148.01 Y110.389 E.01676
G1 X127.114 Y89.493 E.9278
G1 X126.58 Y89.493 E.01677
G1 X148.01 Y110.923 E.95151
G1 X148.01 Y111.457 E.01676
G1 X126.046 Y89.493 E.97522
G1 X125.512 Y89.493 E.01677
G1 X148.01 Y111.991 E.99894
G1 X148.01 Y112.525 E.01676
M73 P2 R47
M73 Q2 S48
G1 X124.978 Y89.492 E1.02265
G1 X124.443 Y89.492 E.01677
G1 X148.01 Y113.059 E1.04636
G1 X148.01 Y113.593 E.01676
G1 X123.909 Y89.492 E1.07007
G1 X123.375 Y89.492 E.01677
G1 X148.01 Y114.127 E1.09378
G1 X148.01 Y114.661 E.01676
G1 X122.841 Y89.492 E1.11749
G1 X122.307 Y89.492 E.01677
G1 X148.01 Y115.195 E1.1412
G1 X148.01 Y115.729 E.01676
G1 X121.773 Y89.492 E1.16491
G1 X121.239 Y89.492 E.01677
G1 X148.01 Y116.263 E1.18862
G1 X148.01 Y116.797 E.01676
G1 X120.705 Y89.492 E1.21233
G1 X120.171 Y89.492 E.01677
G1 X148.01 Y117.331 E1.23604
G1 X148.01 Y117.865 E.01676
G1 X119.637 Y89.492 E1.25976
G1 X119.103 Y89.492 E.01677
G1 X148.01 Y118.399 E1.28347
G1 X148.01 Y118.933 E.01676
G1 X118.569 Y89.492 E1.30718
G1 X118.035 Y89.492 E.01677
G1 X148.007 Y119.463 E1.33072
G1 X147.972 Y119.736 E.00864
M73 Q2 S47
G1 X147.913 Y119.904 E.00558
G1 X117.501 Y89.492 E1.3503
G1 X116.967 Y89.491 E.01677
M73 P3 R47
G1 X147.692 Y120.216 E1.36416
G1 X147.534 Y120.344 E.00637
M73 Q3 S47
G1 X147.37 Y120.428 E.0058
G1 X116.433 Y89.491 E1.37357
G1 X115.899 Y89.491 E.01677
G1 X146.918 Y120.51 E1.37723
G1 X146.384 Y120.51 E.01676
G1 X115.365 Y89.491 E1.37723
G1 X114.831 Y89.491 E.01677
G1 X145.85 Y120.51 E1.37724
G1 X145.316 Y120.51 E.01676
G1 X114.297 Y89.491 E1.37724
G1 X113.763 Y89.491 E.01677
G1 X144.782 Y120.51 E1.37724
G1 X144.248 Y120.51 E.01676
G1 X113.229 Y89.491 E1.37725
G1 X112.695 Y89.491 E.01677
G1 X143.714 Y120.51 E1.37725
G1 X143.18 Y120.51 E.01676
M73 P3 R46
G1 X112.161 Y89.491 E1.37725
G1 X111.627 Y89.491 E.01677
G1 X142.646 Y120.51 E1.37725
G1 X142.112 Y120.51 E.01676
G1 X111.093 Y89.491 E1.37726
G1 X110.559 Y89.491 E.01677
G1 X141.578 Y120.51 E1.37726
G1 X141.044 Y120.51 E.01676
G1 X110.025 Y89.491 E1.37726
M73 P4 R46
G1 X109.49 Y89.49 E.01677
M73 Q4 S47
G1 X140.51 Y120.51 E1.37727
G1 X139.976 Y120.51 E.01676
G1 X108.956 Y89.49 E1.37727
G1 X108.422 Y89.49 E.01677
G1 X139.442 Y120.51 E1.37727
G1 X138.908 Y120.51 E.01676
G1 X107.888 Y89.49 E1.37728
G1 X107.354 Y89.49 E.01677
G1 X138.375 Y120.51 E1.37728
G1 X137.841 Y120.51 E.01676
G1 X106.82 Y89.49 E1.37728
G1 X106.286 Y89.49 E.01677
G1 X137.307 Y120.51 E1.37729
G1 X136.773 Y120.51 E.01676
G1 X105.752 Y89.49 E1.37729
G1 X105.218 Y89.49 E.01677
G1 X136.239 Y120.51 E1.37729
G1 X135.705 Y120.51 E.01676
G1 X104.684 Y89.49 E1.37729
G1 X104.15 Y89.49 E.01677
G1 X135.171 Y120.51 E1.3773
G1 X134.637 Y120.51 E.01676
G1 X103.616 Y89.49 E1.3773
G1 X103.082 Y89.49 E.01677
M73 Q4 S46
G1 X134.103 Y120.51 E1.3773
G1 X133.569 Y120.51 E.01676
M73 P5 R46
M73 Q5 S46
G1 X102.63 Y89.572 E1.37365
G1 X102.466 Y89.656 E.0058
G1 X102.308 Y89.784 E.00637
G1 X133.035 Y120.51 E1.36424
G1 X132.501 Y120.51 E.01676
G1 X102.087 Y90.096 E1.35038
G1 X102.028 Y90.264 E.00558
G1 X101.993 Y90.537 E.00864
G1 X131.967 Y120.51 E1.33081
G1 X131.433 Y120.51 E.01676
G1 X101.99 Y91.067 E1.30727
G1 X101.99 Y91.601 E.01676
G1 X130.899 Y120.51 E1.28356
G1 X130.365 Y120.51 E.01676
G1 X101.99 Y92.135 E1.25985
G1 X101.99 Y92.669 E.01676
G1 X129.831 Y120.51 E1.23615
G1 X129.297 Y120.51 E.01676
G1 X101.99 Y93.203 E1.21244
G1 X101.99 Y93.737 E.01676
M73 P5 R45
G1 X128.763 Y120.51 E1.18873
G1 X128.229 Y120.51 E.01676
G1 X101.99 Y94.271 E1.16502
G1 X101.99 Y94.805 E.01676
G1 X127.695 Y120.51 E1.14131
G1 X127.161 Y120.51 E.01676
G1 X101.99 Y95.339 E1.11761
G1 X101.99 Y95.873 E.01676
G1 X126.627 Y120.51 E1.0939
G1 X126.093 Y120.51 E.01676
M73 P6 R45
G1 X101.99 Y96.407 E1.07019
G1 X101.99 Y96.941 E.01676
M73 Q6 S46
G1 X125.559 Y120.51 E1.04648
G1 X125.025 Y120.51 E.01676
G1 X101.99 Y97.475 E1.02277
G1 X101.99 Y98.009 E.01676
G1 X124.491 Y120.51 E.99907
G1 X123.957 Y120.51 E.01676
G1 X101.99 Y98.543 E.97536
G1 X101.99 Y99.077 E.01676
G1 X123.423 Y120.51 E.95165
G1 X122.89 Y120.51 E.01676
G1 X101.99 Y99.61 E.92794
G1 X101.99 Y100.144 E.01676
G1 X122.356 Y120.51 E.90424
G1 X121.822 Y120.51 E.01676
G1 X101.99 Y100.678 E.88053
G1 X101.99 Y101.212 E.01676
G1 X121.288 Y120.51 E.85682
G1 X120.754 Y120.51 E.01676
G1 X101.99 Y101.746 E.83311
G1 X101.99 Y102.28 E.01676
G1 X120.22 Y120.51 E.8094
G1 X119.686 Y120.51 E.01676
G1 X101.99 Y102.814 E.7857
G1 X101.99 Y103.348 E.01676
G1 X119.152 Y120.51 E.76199
G1 X118.618 Y120.51 E.01676
G1 X101.99 Y103.882 E.73828
G1 X101.99 Y104.416 E.01676
G1 X118.084 Y120.51 E.71457
G1 X117.55 Y120.51 E.01676
G1 X101.99 Y104.95 E.69087
G1 X101.99 Y105.484 E.01676
G1 X117.016 Y120.51 E.66716
G1 X116.482 Y120.51 E.01676
G1 X101.99 Y106.018 E.64345
G1 X101.99 Y106.552 E.01676
G1 X115.948 Y120.51 E.61974
G1 X115.414 Y120.51 E.01676
G1 X101.99 Y107.086 E.59603
G1 X101.99 Y107.62 E.01676
M73 P7 R45
G1 X114.88 Y120.51 E.57233
G1 X114.346 Y120.51 E.01676
M73 Q6 S45
G1 X101.99 Y108.154 E.54862
G1 X101.99 Y108.688 E.01676
G1 X113.812 Y120.51 E.52491
G1 X113.278 Y120.51 E.01676
M73 Q7 S45
G1 X101.99 Y109.222 E.5012
G1 X101.99 Y109.756 E.01676
G1 X112.744 Y120.51 E.4775
G1 X112.21 Y120.51 E.01676
G1 X101.99 Y110.29 E.45379
G1 X101.99 Y110.824 E.01676
G1 X111.676 Y120.51 E.43008
G1 X111.142 Y120.51 E.01676
G1 X101.99 Y111.358 E.40637
G1 X101.99 Y111.892 E.01676
G1 X110.608 Y120.51 E.38266
G1 X110.074 Y120.51 E.01676
G1 X101.99 Y112.426 E.35896
G1 X101.99 Y112.96 E.01676
G1 X109.54 Y120.51 E.33525
G1 X109.006 Y120.51 E.01676
G1 X101.99 Y113.494 E.31154
G1 X101.99 Y114.028 E.01676
G1 X108.472 Y120.51 E.28783
G1 X107.938 Y120.51 E.01676
G1 X101.99 Y114.562 E.26413
G1 X101.99 Y115.095 E.01676
G1 X107.405 Y120.51 E.24042
G1 X106.871 Y120.51 E.01676
G1 X101.99 Y115.629 E.21671
G1 X101.99 Y116.163 E.01676
G1 X106.337 Y120.51 E.193
G1 X105.803 Y120.51 E.01676
G1 X101.99 Y116.697 E.16929
G1 X101.99 Y117.231 E.01676
G1 X105.269 Y120.51 E.14559
G1 X104.735 Y120.51 E.01676
G1 X101.99 Y117.765 E.12188
G1 X101.99 Y118.299 E.01676
G1 X104.201 Y120.51 E.09817
G1 X103.667 Y120.51 E.01676
G1 X101.99 Y118.833 E.07446
G1 X101.99 Y119.367 E.01676
G1 X103.302 Y120.68 E.05829
M204 S1000
; stop printing object 1x1 bin id:0 copy 0
M106 S84.15
;LAYER_CHANGE
;Z:0.5
;HEIGHT:0.3
;BEFORE_LAYER_CHANGE
G92 E0.0
;0.5


;WIPE_START
G1 F8640
G1 X101.99 Y119.367 E-.4287
G1 X101.99 Y118.833 E-.12329
G1 X102.627 Y119.47 E-.208
;WIPE_END
G1 E-.04 F2100
G1 Z.6 F720
;AFTER_LAYER_CHANGE
;0.5
M104 S210 ; set temperature
; printing object 1x1 bin id:0 copy 0
G1 X147.757 Y89.061 F10800
G1 Z.5 F720
G1 E.8 F2100
M204 S800
;TYPE:Perimeter
;WIDTH:0.5
G1 F3000
G1 X147.863 Y89.109 E.00629
G1 X148.158 Y89.342 E.02044
G1 X148.391 Y89.637 E.02044
G1 X148.57 Y90.034 E.02365
G1 X148.648 Y90.692 E.03597
G1 X148.648 Y119.446 E1.56229
G1 X148.57 Y119.966 E.02859
G1 X148.391 Y120.363 E.02365
G1 X148.158 Y120.658 E.02044
G1 X147.863 Y120.891 E.02044
G1 X147.466 Y121.07 E.02365
G1 X146.946 Y121.148 E.02859
G1 X103.054 Y121.148 E2.38473
G1 X102.534 Y121.07 E.02859
G1 X102.137 Y120.891 E.02365
G1 X101.842 Y120.658 E.02044
G1 X101.609 Y120.363 E.02044
G1 X101.43 Y119.966 E.02365
G1 X101.352 Y119.446 E.02859
G1 X101.352 Y90.554 E1.56973
G1 X101.43 Y90.034 E.02859
G1 X101.609 Y89.637 E.02365
G1 X101.842 Y89.342 E.02044
G1 X102.137 Y89.109 E.02045
G1 X102.534 Y88.93 E.02365
G1 X103.054 Y88.852 E.02859
G1 X146.935 Y88.852 E2.38413
G1 X147.467 Y88.93 E.02922
G1 X147.703 Y89.036 E.01406
M204 S1000
G1 X147.936 Y88.664 F10800
M204 S800
;TYPE:External perimeter
G1 F2100
G1 X148.091 Y88.734 E.00923
G1 X148.468 Y89.032 E.02613
G1 X148.766 Y89.409 E.02613
G1 X148.992 Y89.91 E.02985
G1 X149.084 Y90.692 E.04275
G1 X149.084 Y119.478 E1.56405
G1 X148.992 Y120.09 E.03362
G1 X148.766 Y120.591 E.02985
G1 X148.468 Y120.968 E.02613
G1 X148.091 Y121.266 E.02613
G1 X147.59 Y121.492 E.02985
G1 X146.978 Y121.584 E.03362
G1 X103.022 Y121.584 E2.38825
G1 X102.41 Y121.492 E.03362
G1 X101.909 Y121.266 E.02985
G1 X101.532 Y120.968 E.02613
G1 X101.234 Y120.591 E.02613
G1 X101.008 Y120.09 E.02985
G1 X100.916 Y119.478 E.03362
G1 X100.916 Y90.522 E1.57326
G1 X101.008 Y89.91 E.03362
G1 X101.234 Y89.409 E.02985
G1 X101.532 Y89.032 E.02613
G1 X101.909 Y88.734 E.02613
G1 X102.41 Y88.508 E.02985
G1 X103.022 Y88.416 E.03362
G1 X146.967 Y88.416 E2.38763
G1 X147.59 Y88.508 E.03425
G1 X147.881 Y88.639 E.01735
M204 S1000
G1 X147.963 Y88.832 F10800
;WIPE_START
G1 F8640
G1 X148.091 Y88.734 E-.05307
G1 X148.468 Y89.032 E-.11103
G1 X148.766 Y89.409 E-.11103
G1 X148.992 Y89.91 E-.12687
G1 X149.084 Y90.692 E-.18168
G1 X149.084 Y91.455 E-.17632
;WIPE_END
G1 E-.04 F2100
G1 Z.9 F720
G1 X146.715 Y121.017 F10800
G1 Z.5 F720
G1 E.8 F2100
;TYPE:Solid infill
;WIDTH:0.501774
G1 F4800
G1 X148.321 Y119.411 E.12393
G1 X148.321 Y118.793 E.03375
G1 X146.293 Y120.821 E.15653
G1 X145.674 Y120.821 E.03375
M73 P7 R44
G1 X148.321 Y118.174 E.20425
G1 X148.321 Y117.555 E.03375
G1 X145.055 Y120.821 E.25198
G1 X144.437 Y120.821 E.03375
G1 X148.321 Y116.937 E.2997
G1 X148.321 Y116.318 E.03375
G1 X143.818 Y120.821 E.34742
G1 X143.2 Y120.821 E.03375
G1 X148.321 Y115.7 E.39515
G1 X148.321 Y115.081 E.03375
G1 X142.581 Y120.821 E.44287
G1 X141.963 Y120.821 E.03375
G1 X148.321 Y114.463 E.49059
G1 X148.321 Y113.844 E.03375
G1 X141.344 Y120.821 E.53832
G1 X140.725 Y120.821 E.03375
G1 X148.321 Y113.225 E.58604
G1 X148.321 Y112.607 E.03375
G1 X140.107 Y120.821 E.63376
G1 X139.488 Y120.821 E.03375
G1 X148.321 Y111.988 E.68149
G1 X148.321 Y111.37 E.03375
G1 X138.87 Y120.821 E.72921
G1 X138.251 Y120.821 E.03375
G1 X148.321 Y110.751 E.77693
G1 X148.321 Y110.133 E.03375
G1 X137.633 Y120.821 E.82466
G1 X137.014 Y120.821 E.03375
G1 X148.321 Y109.514 E.87238
G1 X148.321 Y108.895 E.03375
G1 X136.395 Y120.821 E.9201
G1 X135.777 Y120.821 E.03375
G1 X148.321 Y108.277 E.96782
G1 X148.321 Y107.658 E.03375
G1 X135.158 Y120.821 E1.01555
G1 X134.54 Y120.821 E.03375
G1 X148.321 Y107.04 E1.06327
G1 X148.321 Y106.421 E.03375
G1 X133.921 Y120.821 E1.11099
G1 X133.303 Y120.821 E.03375
G1 X148.321 Y105.803 E1.15872
G1 X148.321 Y105.184 E.03375
G1 X132.684 Y120.821 E1.20644
G1 X132.065 Y120.821 E.03375
G1 X148.321 Y104.566 E1.25416
G1 X148.321 Y103.947 E.03375
G1 X131.447 Y120.821 E1.30189
G1 X130.828 Y120.821 E.03375
G1 X148.321 Y103.328 E1.34961
G1 X148.321 Y102.71 E.03375
G1 X130.21 Y120.821 E1.39733
G1 X129.591 Y120.821 E.03375
M73 P8 R44
